public/images/google-play.svg

<svg fill="none" height="90" viewBox="0 0 90 90" width="90" xmlns="http://www.w3.org/2000/svg"><path d="m13.5338 6.80249 38.1862 38.19751-38.1825 38.1975c-.679-.2854-1.2584-.7653-1.6654-1.3791-.407-.6139-.6235-1.3344-.6221-2.0709v-69.495c.0003-.73568.217-1.45502.623-2.06846.4061-.61345.9837-1.0939 1.6608-1.38155zm40.8375 40.84871 8.6325 8.6325-41.0138 23.7488zm11.9962-11.9925 10.5263 6.0975c.5682.3297 1.0399.8028 1.3678 1.3721s.5005 1.2147.5005 1.8717-.1726 1.3024-.5005 1.8717c-.3279.5692-.7996 1.0424-1.3678 1.372l-10.53 6.0975-9.3413-9.3412zm-44.3775-25.69121 41.0175 23.74501-8.6362 8.6362z" fill="#000"/></svg>

<svg width="90" height="90" viewBox="0 0 90 90" fill="none" xmlns="http://www.w3.org/2000/svg">
<path d="M13.5338 6.80249L51.72 45L13.5375 83.1975C12.8585 82.9121 12.2791 82.4322 11.8721 81.8184C11.4651 81.2045 11.2486 80.484 11.25 79.7475V10.2525C11.2503 9.51682 11.467 8.79748 11.873 8.18404C12.2791 7.57059 12.8567 7.09014 13.5338 6.80249ZM54.3713 47.6512L63.0038 56.2837L21.99 80.0325L54.3713 47.6512ZM66.3675 35.6587L76.8938 41.7562C77.462 42.0859 77.9337 42.559 78.2616 43.1283C78.5895 43.6976 78.7621 44.343 78.7621 45C78.7621 45.657 78.5895 46.3024 78.2616 46.8717C77.9337 47.4409 77.462 47.9141 76.8938 48.2437L66.3638 54.3412L57.0225 45L66.3675 35.6587ZM21.99 9.96749L63.0075 33.7125L54.3713 42.3487L21.99 9.96749Z" fill="black"/>
</svg>
